X: 9862
T:Standing Stones, The
R:March
A:Orkney
O:Scotland
M:4/4
L:1/8
K:A
E2|A3G A2B2|c4 B2A|d3c d2e2|f2a2 g2f2|!
e2A3c|1 e2c2 a2e2|c4 B4|B4 E4:|2 e2d2 B2G2|A4 A4|A4:|!
|:c3d|e4 c3d|e4 a3g|f2d2 A2d2|f4 e3d|!
c4 A3c|e2c2 a2e2|c4 B4|B4 E4|!
A3G A2B2|c4 B2A2|d3c d2e2|f2a2 g2f2|!
e4 A3c|e2d2 B2G2|A4 A4|A4:|!
